apps/22/checkbox.svg

<?xml version="1.0" encoding="UTF-8" standalone="no"?>
<!-- Created with Inkscape (http://www.inkscape.org/) -->

<svg
   xmlns:svg="http://www.w3.org/2000/svg"
   xmlns="http://www.w3.org/2000/svg"
   xmlns:xlink="http://www.w3.org/1999/xlink"
   version="1.0"
   width="22"
   height="22"
   id="svg2">
  <defs
     id="defs4">
    <linearGradient
       id="linearGradient10691">
      <stop
         id="stop10693"
         style="stop-color:black;stop-opacity:1"
         offset="0" />
      <stop
         id="stop10695"
         style="stop-color:black;stop-opacity:0"
         offset="1" />
    </linearGradient>
    <radialGradient
       cx="6.702713"
       cy="73.615715"
       r="7.228416"
       fx="6.702713"
       fy="73.615715"
       id="radialGradient2582"
       xlink:href="#linearGradient10691"
       gradientUnits="userSpaceOnUse"
       gradientTransform="matrix(0.9684003,0,0,0.3458572,4.509091,-5.9605186)" />
    <linearGradient
       id="linearGradient3406">
      <stop
         id="stop3408"
         style="stop-color:gray;stop-opacity:1"
         offset="0" />
      <stop
         id="stop3414"
         style="stop-color:gray;stop-opacity:1"
         offset="0.30009115" />
      <stop
         id="stop3416"
         style="stop-color:#969696;stop-opacity:1"
         offset="0.4148587" />
      <stop
         id="stop3410"
         style="stop-color:#969696;stop-opacity:1"
         offset="1" />
    </linearGradient>
    <linearGradient
       x1="24.000002"
       y1="45"
       x2="24.000002"
       y2="37.974422"
       id="linearGradient2579"
       xlink:href="#linearGradient3406"
       gradientUnits="userSpaceOnUse"
       gradientTransform="matrix(0.3913044,0,0,0.4444444,1.6086948,0.7222241)" />
    <linearGradient
       id="linearGradient3418">
      <stop
         id="stop3420"
         style="stop-color:#aaa;stop-opacity:1"
         offset="0" />
      <stop
         id="stop3426"
         style="stop-color:#b3b3b3;stop-opacity:1"
         offset="0.26436639" />
      <stop
         id="stop3428"
         style="stop-color:#bebebe;stop-opacity:1"
         offset="0.39481503" />
      <stop
         id="stop3422"
         style="stop-color:#b3b3b3;stop-opacity:1"
         offset="1" />
    </linearGradient>
    <linearGradient
       x1="26.870913"
       y1="45"
       x2="26.746988"
       y2="36.943203"
       id="linearGradient2577"
       xlink:href="#linearGradient3418"
       gradientUnits="userSpaceOnUse"
       gradientTransform="matrix(0.3913044,0,0,0.4444444,1.6086948,0.7222241)" />
    <linearGradient
       id="linearGradient3269">
      <stop
         id="stop3271"
         style="stop-color:white;stop-opacity:1"
         offset="0" />
      <stop
         id="stop3273"
         style="stop-color:white;stop-opacity:0"
         offset="1" />
    </linearGradient>
    <linearGradient
       x1="19.283365"
       y1="42.361061"
       x2="19.283365"
       y2="34.020142"
       id="linearGradient2574"
       xlink:href="#linearGradient3269"
       gradientUnits="userSpaceOnUse"
       gradientTransform="matrix(0.3048606,0,0,0.3768224,3.6833439,3.4923367)" />
    <linearGradient
       id="linearGradient3104-947-917-603-424-766-313">
      <stop
         id="stop3930"
         style="stop-color:#28673f;stop-opacity:1"
         offset="0" />
      <stop
         id="stop3932"
         style="stop-color:#41ae67;stop-opacity:1"
         offset="1" />
    </linearGradient>
    <linearGradient
       x1="-51.786404"
       y1="35.412201"
       x2="-51.786404"
       y2="2.2594204"
       id="linearGradient2607"
       xlink:href="#linearGradient3104-947-917-603-424-766-313"
       gradientUnits="userSpaceOnUse"
       gradientTransform="matrix(0.3559034,0,0,0.4018332,25.320951,0.9981137)" />
    <linearGradient
       id="linearGradient3298-628-126-871-718-519-851">
      <stop
         id="stop3924"
         style="stop-color:#2f7b48;stop-opacity:1"
         offset="0" />
      <stop
         id="stop3926"
         style="stop-color:#76dd98;stop-opacity:1"
         offset="1" />
    </linearGradient>
    <linearGradient
       x1="31.84656"
       y1="31.999964"
       x2="31.84656"
       y2="0.99868447"
       id="linearGradient2605"
       xlink:href="#linearGradient3298-628-126-871-718-519-851"
       gradientUnits="userSpaceOnUse"
       gradientTransform="matrix(0.4407489,0,0,0.4293774,-0.864045,1.4766461)" />
    <linearGradient
       id="linearGradient3202">
      <stop
         id="stop3204"
         style="stop-color:white;stop-opacity:1"
         offset="0" />
      <stop
         id="stop3206"
         style="stop-color:#d3eefc;stop-opacity:1"
         offset="1" />
    </linearGradient>
    <linearGradient
       x1="-83.756935"
       y1="-7.8379993"
       x2="-92.222527"
       y2="27.521217"
       id="linearGradient2612"
       xlink:href="#linearGradient3202"
       gradientUnits="userSpaceOnUse"
       gradientTransform="matrix(0.2707242,-0.0632796,0.06481596,0.2643071,34.183056,-0.1084059)" />
    <linearGradient
       id="linearGradient3738">
      <stop
         id="stop3742"
         style="stop-color:white;stop-opacity:1"
         offset="0" />
      <stop
         id="stop3750"
         style="stop-color:white;stop-opacity:0"
         offset="0.85612506" />
      <stop
         id="stop3744"
         style="stop-color:white;stop-opacity:0"
         offset="1" />
    </linearGradient>
    <linearGradient
       x1="17.355219"
       y1="8.000001"
       x2="24.007845"
       y2="26.039217"
       id="linearGradient2567"
       xlink:href="#linearGradient3738"
       gradientUnits="userSpaceOnUse"
       gradientTransform="matrix(0.5351886,0,0,0.545595,-1.8487238,-3.0226546)" />
  </defs>
  <g
     id="layer1">
    <path
       d="m 18,19.500001 c 0,1.380712 -3.134007,2.5 -7,2.5 -3.8659933,0 -7,-1.119288 -7,-2.5 0,-1.380712 3.1340067,-2.5 7,-2.5 3.865993,0 7,1.119288 7,2.5 z"
       id="path2883"
       style="opacity:0.4;fill:url(#radialGradient2582);fill-opacity:1;fill-rule:nonzero;stroke:none;stroke-width:0.80000001;marker:none;visibility:visible;display:inline;overflow:visible" />
    <path
       d="m 7.0802222,16.503038 c 0,0 -0.5663857,2.665455 -0.5663857,2.843505 0,0.168188 -0.1274451,1.153458 0.3912359,1.153458 0.5096047,0 7.8937856,0 8.2895636,0 0.396522,0 0.269701,-1.181574 0.304059,-1.275422 C 15.531927,19.13381 14.919699,16.5 14.919699,16.5 l -7.8394768,0.003 z"
       id="path2170"
       style="fill:url(#linearGradient2577);fill-opacity:1;fill-rule:evenodd;stroke:url(#linearGradient2579);stroke-width:0.99999982;stroke-linecap:round;stroke-linejoin:round;stroke-miterlimit:4;stroke-opacity:1;stroke-dasharray:none" />
    <path
       d="m 7.9513929,16.502437 c 0,0 -0.3369566,2.241113 -0.4141682,2.589807 C 7.460538,19.438563 7.4775634,19.5 7.8289386,19.5 c 0.3442817,0 6.1057424,0 6.3841404,0 0.285399,0 0.316551,-0.122682 0.26834,-0.411677 C 14.434274,18.805736 14.048605,16.5 14.048605,16.5 l -6.0972121,0.0024 z"
       id="path2186"
       style="opacity:0.4;fill:none;stroke:url(#linearGradient2574);stroke-width:0.99999976;stroke-linecap:round;stroke-linejoin:round;stroke-miterlimit:4;stroke-opacity:1;stroke-dasharray:none" />
    <path
       d="m 0.78630833,2.0059375e-4 c 6.80912837,0 13.61825767,0 20.42738367,0 C 21.972798,-0.00602565 22.037658,0.82457405 21.98687,1.3976596 c 0,4.9369872 -1e-6,9.8739734 -1e-6,14.8109614 0.0062,0.764001 -0.819091,0.829279 -1.388504,0.778164 -6.604021,0 -13.208038,0 -19.81205667,0 -0.759105,0.0062 -0.82396673,-0.824374 -0.77317762,-1.397459 0,-4.936988 0,-9.8739752 0,-14.81096249 C 0.00309468,0.36008067 0.37056442,-0.00986585 0.78630833,2.0059375e-4 z"
       id="rect3170"
       style="fill:#1a1a1a;fill-opacity:1;fill-rule:evenodd;stroke:none;stroke-width:1.00396311;marker:none;visibility:visible;display:inline;overflow:visible;enable-background:accumulate" />
    <path
       d="m 1.999961,1.9999608 c 3.534934,0 14.465144,0 18.000079,0 0,5.4236982 0,8.6120242 0,13.0000782 -5.142082,0 -12.857998,0 -18.000079,0 0,-6.4406726 0,-6.5594061 0,-13.0000782 z"
       id="path4322"
       style="fill:url(#linearGradient2605);fill-opacity:1;stroke:url(#linearGradient2607);stroke-width:0.9999218;stroke-linecap:butt;stroke-linejoin:round;stroke-miterlimit:4;stroke-opacity:1;stroke-dasharray:none;stroke-dashoffset:0;display:inline" />
    <path
       d="M 13.740182,2.6420465 C 13.591225,2.6272874 13.443134,2.6985135 13.3666,2.8352548 L 10.105743,8.6601349 8.0092243,7.0326531 C 7.8224759,6.9330263 7.5894769,6.9971176 7.487432,7.17944 L 6.5472644,8.3578816 c -0.1020439,0.1823187 -0.033396,0.4097279 0.1533517,0.5093513 0,0 3.8279829,3.0866421 3.8327059,3.0889251 0.04377,0.02335 0.08954,0.0351 0.136066,0.04084 0.151986,0.01875 0.307527,-0.05097 0.385654,-0.190556 L 15.452739,3.9508672 C 15.554782,3.7685456 15.486135,3.541139 15.299387,3.4415138 L 13.888321,2.6855382 c -0.04669,-0.024907 -0.09849,-0.038572 -0.148139,-0.043492 z"
       id="path1542"
       style="opacity:0.35;fill:black;fill-opacity:1;fill-rule:nonzero;stroke:none;stroke-width:1.00278974;marker:none;visibility:visible;display:inline;overflow:visible" />
    <path
       d="M 13.740182,3.6420465 C 13.591225,3.6272873 13.443134,3.6985135 13.3666,3.8352549 L 10.105743,9.6601347 8.0092243,8.0326527 C 7.8224759,7.9330259 7.5894769,7.9971173 7.487432,8.1794395 L 6.5472644,9.3578811 c -0.1020439,0.1823199 -0.033396,0.4097282 0.1533517,0.5093525 0,0 3.8279829,3.0866414 3.8327059,3.0889234 0.04377,0.02335 0.08954,0.0351 0.136066,0.04084 0.151986,0.01875 0.307527,-0.05096 0.385654,-0.190555 l 4.397697,-7.8555751 c 0.102043,-0.1823215 0.0334,-0.4097283 -0.153352,-0.5093534 L 13.888321,3.6855382 c -0.04669,-0.024907 -0.09849,-0.038572 -0.148139,-0.043492 z"
       id="path4368"
       style="fill:url(#linearGradient2612);fill-opacity:1;fill-rule:nonzero;stroke:none;stroke-width:1.00278974;marker:none;visibility:visible;display:inline;overflow:visible" />
    <path
       d="m 1.375,1.3592217 0,9.8249893 C 2.2916668,10.949406 20.323997,5.4578487 20.624996,5.1676882 l 5e-6,-3.8255828 L 1.375,1.3592217 z"
       id="path4073"
       style="opacity:0.3;fill:url(#linearGradient2567);fill-opacity:1;fill-rule:evenodd;stroke:none" />
  </g>
</svg>

<?xml version="1.0" encoding="UTF-8" standalone="no"?>
<!-- Created with Inkscape (http://www.inkscape.org/) -->
<svg
   xmlns:svg="http://www.w3.org/2000/svg"
   xmlns="http://www.w3.org/2000/svg"
   xmlns:xlink="http://www.w3.org/1999/xlink"
   version="1.0"
   width="22"
   height="22"
   id="svg2">
  <defs
     id="defs4">
    <linearGradient
       id="linearGradient10691">
      <stop
         id="stop10693"
         style="stop-color:#000000;stop-opacity:1"
         offset="0" />
      <stop
         id="stop10695"
         style="stop-color:#000000;stop-opacity:0"
         offset="1" />
    </linearGradient>
    <radialGradient
       cx="6.702713"
       cy="73.615715"
       r="7.228416"
       fx="6.702713"
       fy="73.615715"
       id="radialGradient2582"
       xlink:href="#linearGradient10691"
       gradientUnits="userSpaceOnUse"
       gradientTransform="matrix(0.9684003,0,0,0.3458572,4.509091,-5.9605186)" />
    <linearGradient
       id="linearGradient3406">
      <stop
         id="stop3408"
         style="stop-color:#808080;stop-opacity:1"
         offset="0" />
      <stop
         id="stop3414"
         style="stop-color:#808080;stop-opacity:1"
         offset="0.30009115" />
      <stop
         id="stop3416"
         style="stop-color:#969696;stop-opacity:1"
         offset="0.4148587" />
      <stop
         id="stop3410"
         style="stop-color:#969696;stop-opacity:1"
         offset="1" />
    </linearGradient>
    <linearGradient
       x1="24.000002"
       y1="45"
       x2="24.000002"
       y2="37.974422"
       id="linearGradient2579"
       xlink:href="#linearGradient3406"
       gradientUnits="userSpaceOnUse"
       gradientTransform="matrix(0.3913044,0,0,0.4444444,1.6086948,0.7222241)" />
    <linearGradient
       id="linearGradient3418">
      <stop
         id="stop3420"
         style="stop-color:#aaaaaa;stop-opacity:1"
         offset="0" />
      <stop
         id="stop3426"
         style="stop-color:#b3b3b3;stop-opacity:1"
         offset="0.26436639" />
      <stop
         id="stop3428"
         style="stop-color:#bebebe;stop-opacity:1"
         offset="0.39481503" />
      <stop
         id="stop3422"
         style="stop-color:#b3b3b3;stop-opacity:1"
         offset="1" />
    </linearGradient>
    <linearGradient
       x1="26.870913"
       y1="45"
       x2="26.746988"
       y2="36.943203"
       id="linearGradient2577"
       xlink:href="#linearGradient3418"
       gradientUnits="userSpaceOnUse"
       gradientTransform="matrix(0.3913044,0,0,0.4444444,1.6086948,0.7222241)" />
    <linearGradient
       id="linearGradient3269">
      <stop
         id="stop3271"
         style="stop-color:#ffffff;stop-opacity:1"
         offset="0" />
      <stop
         id="stop3273"
         style="stop-color:#ffffff;stop-opacity:0"
         offset="1" />
    </linearGradient>
    <linearGradient
       x1="19.283365"
       y1="42.361061"
       x2="19.283365"
       y2="34.020142"
       id="linearGradient2574"
       xlink:href="#linearGradient3269"
       gradientUnits="userSpaceOnUse"
       gradientTransform="matrix(0.3048606,0,0,0.3768224,3.6833439,3.4923367)" />
    <linearGradient
       id="linearGradient3104-947-917-603-424-766-313">
      <stop
         id="stop3930"
         style="stop-color:#28673f;stop-opacity:1"
         offset="0" />
      <stop
         id="stop3932"
         style="stop-color:#41ae67;stop-opacity:1"
         offset="1" />
    </linearGradient>
    <linearGradient
       x1="-51.786404"
       y1="35.412201"
       x2="-51.786404"
       y2="2.2594204"
       id="linearGradient2607"
       xlink:href="#linearGradient3104-947-917-603-424-766-313"
       gradientUnits="userSpaceOnUse"
       gradientTransform="matrix(0.3559034,0,0,0.4018332,25.320951,0.9981137)" />
    <linearGradient
       id="linearGradient3298-628-126-871-718-519-851">
      <stop
         id="stop3924"
         style="stop-color:#2f7b48;stop-opacity:1"
         offset="0" />
      <stop
         id="stop3926"
         style="stop-color:#76dd98;stop-opacity:1"
         offset="1" />
    </linearGradient>
    <linearGradient
       x1="31.84656"
       y1="31.999964"
       x2="31.84656"
       y2="0.99868447"
       id="linearGradient2605"
       xlink:href="#linearGradient3298-628-126-871-718-519-851"
       gradientUnits="userSpaceOnUse"
       gradientTransform="matrix(0.4407489,0,0,0.4293774,-0.864045,1.4766461)" />
    <linearGradient
       id="linearGradient3202">
      <stop
         id="stop3204"
         style="stop-color:#ffffff;stop-opacity:1"
         offset="0" />
      <stop
         id="stop3206"
         style="stop-color:#d3eefc;stop-opacity:1"
         offset="1" />
    </linearGradient>
    <linearGradient
       x1="-83.756935"
       y1="-7.8379993"
       x2="-92.222527"
       y2="27.521217"
       id="linearGradient2612"
       xlink:href="#linearGradient3202"
       gradientUnits="userSpaceOnUse"
       gradientTransform="matrix(0.2707242,-6.3279597e-2,6.4815957e-2,0.2643071,34.183056,-0.1084059)" />
    <linearGradient
       id="linearGradient3738">
      <stop
         id="stop3742"
         style="stop-color:#ffffff;stop-opacity:1"
         offset="0" />
      <stop
         id="stop3750"
         style="stop-color:#ffffff;stop-opacity:0"
         offset="0.85612506" />
      <stop
         id="stop3744"
         style="stop-color:#ffffff;stop-opacity:0"
         offset="1" />
    </linearGradient>
    <linearGradient
       x1="17.355219"
       y1="8.000001"
       x2="24.007845"
       y2="26.039217"
       id="linearGradient2567"
       xlink:href="#linearGradient3738"
       gradientUnits="userSpaceOnUse"
       gradientTransform="matrix(0.5351886,0,0,0.545595,-1.8487238,-3.0226546)" />
  </defs>
  <g
     id="layer1">
    <path
       d="M 18,19.500001 C 18,20.880713 14.865993,22.000001 11,22.000001 C 7.1340067,22.000001 4,20.880713 4,19.500001 C 4,18.119289 7.1340067,17.000001 11,17.000001 C 14.865993,17.000001 18,18.119289 18,19.500001 z"
       id="path2883"
       style="opacity:0.4;fill:url(#radialGradient2582);fill-opacity:1;fill-rule:nonzero;stroke:none;stroke-width:0.80000001;stroke-linecap:butt;stroke-linejoin:miter;marker:none;marker-start:none;marker-mid:none;marker-end:none;stroke-miterlimit:4;stroke-dashoffset:0;stroke-opacity:1;visibility:visible;display:inline;overflow:visible" />
    <path
       d="M 7.0802222,16.503038 C 7.0802222,16.503038 6.5138365,19.168493 6.5138365,19.346543 C 6.5138365,19.514731 6.3863914,20.500001 6.9050724,20.500001 C 7.4146771,20.500001 14.798858,20.500001 15.194636,20.500001 C 15.591158,20.500001 15.464337,19.318427 15.498695,19.224579 C 15.531927,19.13381 14.919699,16.5 14.919699,16.5 L 7.0802222,16.503038 z"
       id="path2170"
       style="fill:url(#linearGradient2577);fill-opacity:1;fill-rule:evenodd;stroke:url(#linearGradient2579);stroke-width:0.99999982;stroke-linecap:round;stroke-linejoin:round;stroke-miterlimit:4;stroke-dasharray:none;stroke-opacity:1" />
    <path
       d="M 7.9513929,16.502437 C 7.9513929,16.502437 7.6144363,18.74355 7.5372247,19.092244 C 7.460538,19.438563 7.4775634,19.5 7.8289386,19.5 C 8.1732203,19.5 13.934681,19.5 14.213079,19.5 C 14.498478,19.5 14.52963,19.377318 14.481419,19.088323 C 14.434274,18.805736 14.048605,16.5 14.048605,16.5 L 7.9513929,16.502437 z"
       id="path2186"
       style="opacity:0.4;fill:none;fill-opacity:1;fill-rule:evenodd;stroke:url(#linearGradient2574);stroke-width:0.99999976;stroke-linecap:round;stroke-linejoin:round;stroke-miterlimit:4;stroke-dasharray:none;stroke-opacity:1" />
    <path
       d="M 0.78630833,0.00020059375 C 7.5954367,0.00020059375 14.404566,0.00020059375 21.213692,0.00020059375 C 21.972798,-0.0060256521 22.037658,0.82457405 21.98687,1.3976596 C 21.98687,6.3346468 21.986869,11.271633 21.986869,16.208621 C 21.993058,16.972622 21.167778,17.0379 20.598365,16.986785 C 13.994344,16.986785 7.390327,16.986785 0.78630833,16.986785 C 0.027203332,16.99301 -0.037658401,16.162411 0.013130713,15.589326 C 0.013130713,10.652338 0.013130713,5.7153508 0.013130713,0.77836351 C 0.0030946844,0.36008067 0.37056442,-0.0098658495 0.78630833,0.00020059375 z"
       id="rect3170"
       style="fill:#1a1a1a;fill-opacity:1;fill-rule:evenodd;stroke:none;stroke-width:1.00396311;stroke-linecap:round;stroke-linejoin:round;marker:none;marker-start:none;marker-mid:none;marker-end:none;stroke-miterlimit:4;stroke-dasharray:none;stroke-dashoffset:0;stroke-opacity:1;visibility:visible;display:inline;overflow:visible;enable-background:accumulate" />
    <path
       d="M 1.999961,1.9999608 C 5.534895,1.9999608 16.465105,1.9999608 20.00004,1.9999608 C 20.00004,7.423659 20.00004,10.611985 20.00004,15.000039 C 14.857958,15.000039 7.142042,15.000039 1.999961,15.000039 C 1.999961,8.5593664 1.999961,8.4406329 1.999961,1.9999608 z"
       id="path4322"
       style="fill:url(#linearGradient2605);fill-opacity:1;stroke:url(#linearGradient2607);stroke-width:0.9999218;stroke-linecap:butt;stroke-linejoin:round;stroke-miterlimit:4;stroke-dasharray:none;stroke-dashoffset:0;stroke-opacity:1;display:inline" />
    <path
       d="M 13.740182,2.6420465 C 13.591225,2.6272874 13.443134,2.6985135 13.3666,2.8352548 L 10.105743,8.6601349 L 8.0092243,7.0326531 C 7.8224759,6.9330263 7.5894769,6.9971176 7.487432,7.17944 L 6.5472644,8.3578816 C 6.4452205,8.5402003 6.5138688,8.7676095 6.7006161,8.8672329 C 6.7006161,8.8672329 10.528599,11.953875 10.533322,11.956158 C 10.57709,11.979509 10.622861,11.991257 10.669388,11.996998 C 10.821374,12.015746 10.976915,11.946032 11.055042,11.806442 L 15.452739,3.9508672 C 15.554782,3.7685456 15.486135,3.541139 15.299387,3.4415138 L 13.888321,2.6855382 C 13.841633,2.6606314 13.789835,2.6469659 13.740182,2.6420465 z"
       id="path1542"
       style="opacity:0.35;fill:#000000;fill-opacity:1;fill-rule:nonzero;stroke:none;stroke-width:1.00278974;stroke-linecap:round;stroke-linejoin:round;marker:none;marker-start:none;marker-mid:none;marker-end:none;stroke-miterlimit:4;stroke-dasharray:none;stroke-dashoffset:0;stroke-opacity:1;visibility:visible;display:inline;overflow:visible" />
    <path
       d="M 13.740182,3.6420465 C 13.591225,3.6272873 13.443134,3.6985135 13.3666,3.8352549 L 10.105743,9.6601347 L 8.0092243,8.0326527 C 7.8224759,7.9330259 7.5894769,7.9971173 7.487432,8.1794395 L 6.5472644,9.3578811 C 6.4452205,9.540201 6.5138688,9.7676093 6.7006161,9.8672336 C 6.7006161,9.8672336 10.528599,12.953875 10.533322,12.956157 C 10.57709,12.97951 10.622861,12.991258 10.669388,12.996997 C 10.821374,13.015747 10.976915,12.946032 11.055042,12.806442 L 15.452739,4.9508669 C 15.554782,4.7685454 15.486135,4.5411386 15.299387,4.4415135 L 13.888321,3.6855382 C 13.841633,3.6606314 13.789835,3.646966 13.740182,3.6420465 z"
       id="path4368"
       style="fill:url(#linearGradient2612);fill-opacity:1;fill-rule:nonzero;stroke:none;stroke-width:1.00278974;stroke-linecap:round;stroke-linejoin:round;marker:none;marker-start:none;marker-mid:none;marker-end:none;stroke-miterlimit:4;stroke-dasharray:none;stroke-dashoffset:0;stroke-opacity:1;visibility:visible;display:inline;overflow:visible" />
    <path
       d="M 1.375,1.3592217 L 1.375,11.184211 C 2.2916668,10.949406 20.323997,5.4578487 20.624996,5.1676882 L 20.625001,1.3421054 L 1.375,1.3592217 z"
       id="path4073"
       style="opacity:0.3;fill:url(#linearGradient2567);fill-opacity:1;fill-rule:evenodd;stroke:none;stroke-width:1px;stroke-linecap:butt;stroke-linejoin:miter;stroke-opacity:1" />
  </g>
</svg>
